X: 8
T: Ships Are Sailing (R-115)
I: Ships Are Sailing	R-115	E Dor	reel
M: C|
R: reel
K: EDor
"Em"Beed BcdB| "D"AD (3FED AD (3FED| "Em"EDEF GFGA| Bdef gfed|
"Em"Beed BcdB| "D"AD (3FED AD (3FED| "Em"EDEF GFGA |1        "D"Bded "Em"e2ed :|2 "D"Bded "Em"e2 |]
|:ef | "G"gfga bgeg| "D"fefg afdf| "Em"gfga bgeg| "D"fedf "Em"e2ef|
     "G"gfga bgeg| "D"fefg afdf| "G"g2ge "D"f2fd |1     "Em"edef gf :|2 "Em"edef gfed |]

